X:1
T: The Yoe
C:
R:Strathspey
Q: 128
K:G
M:4/4
L:1/16
|:DG3 G3F DG3 G3A|F4 A3F d3F A3F|DG3 G3F DG3 G3g|f3d ((3c2B2A2) BG3 G4|
DG3 G3F DG3 G3A|F4 A3F d3F A3F|DG3 G3F DG3 G3g|f3d ((3c2B2A2) BG3 G4|
g4 b3g d3g b3g|f4 a3f d3f a3f|g4 b3g d3g b3g|a3g f3a g4 g4|
g4 b3g d3g b3g|f4 a3f d3f a3f|((3b2a2g2) ((3a2g2f2) gd3 d3e|d3c B3A G4 g4:|
